assets/icons/emote/yawn.svg

<?xml version="1.0" encoding="UTF-8" standalone="no"?>
<svg viewBox="0 0 24 24" width="24" height="24" version="1.1" id="svg836" sodipodi:docname="yawn.svg" inkscape:version="1.1 (ce6663b3b7, 2021-05-25)"
   xmlns:inkscape="http://www.inkscape.org/namespaces/inkscape"
   xmlns:sodipodi="http://sodipodi.sourceforge.net/DTD/sodipodi-0.dtd"
   xmlns="http://www.w3.org/2000/svg"
   xmlns:svg="http://www.w3.org/2000/svg"
   xmlns:rdf="http://www.w3.org/1999/02/22-rdf-syntax-ns#"
   xmlns:cc="http://creativecommons.org/ns#"
   xmlns:dc="http://purl.org/dc/elements/1.1/">
   <metadata id="metadata842">
      <rdf:RDF>
         <cc:Work rdf:about="">
            <dc:format>image/svg+xml</dc:format>
            <dc:type rdf:resource="http://purl.org/dc/dcmitype/StillImage" />
         </cc:Work>
      </rdf:RDF>
   </metadata>
   <defs id="defs840" />
   <sodipodi:namedview pagecolor="#ffffff" bordercolor="#666666" borderopacity="1" objecttolerance="10" gridtolerance="10" guidetolerance="10" inkscape:pageopacity="0" inkscape:pageshadow="2" inkscape:window-width="1920" inkscape:window-height="1016" id="namedview838" showgrid="true" inkscape:zoom="27.5" inkscape:cx="2.3090909" inkscape:cy="8.2" inkscape:window-x="0" inkscape:window-y="27" inkscape:window-maximized="1" inkscape:current-layer="svg836" inkscape:pagecheckerboard="0">
      <inkscape:grid type="xygrid" id="grid1441" />
   </sodipodi:namedview>
   <path id="path993" style="fill:#808080;fill-opacity:1;fill-rule:evenodd;stroke:none;stroke-width:0.75;stroke-linecap:square;stroke-linejoin:round;stroke-opacity:1" d="m 11.953614,2.6250144 a 9.375,9.375 0 0 0 -9.328614,9.3749996 9.375,9.375 0 0 0 9.375001,9.375 9.375,9.375 0 0 0 9.374999,-9.375 9.375,9.375 0 0 0 -9.374999,-9.3749996 9.375,9.375 0 0 0 -0.04639,0 z m 0.04639,1.25 a 8.125,8.125 0 0 1 8.124999,8.1249996 8.125,8.125 0 0 1 -8.124999,8.125 8.125,8.125 0 0 1 -8.1250002,-8.125 8.125,8.125 0 0 1 8.1250002,-8.1249996 z" />
   <path d="m 15.08625,7.8600141 c 0.9175,0 1.83625,0.5575 1.91375,1.64 0.15625,2.1662499 -1.875,-0.4225 -3.75,0 0,-1.0825 0.9175,-1.64 1.83625,-1.64 z" id="path1410" style="fill:#808080;fill-opacity:1;stroke-width:1" />
   <path d="m 8.9222309,7.8612641 c 0.91875,0 1.8362501,0.5575 1.8362501,1.63875 -1.8750001,-0.4225 -3.9062505,2.1662499 -3.7500005,0 0.07875,-1.0825 0.9962504,-1.64 1.9137504,-1.64 z" id="path1408" style="fill:#808080;fill-opacity:1;stroke-width:1" />
   <ellipse style="fill:#808080;fill-rule:evenodd;stroke:none;stroke-width:1" id="path1447" cx="12" cy="14.500014" rx="2.1875" ry="3.125" />
</svg>

<svg width="24" height="24" xmlns="http://www.w3.org/2000/svg"><path style="fill:gray;fill-opacity:1;stroke:none;stroke-width:.75;stroke-linecap:square;stroke-linejoin:round;stroke-opacity:1" d="M11.954 2.625A9.375 9.375 0 0 0 2.625 12 9.375 9.375 0 0 0 12 21.375 9.375 9.375 0 0 0 21.375 12 9.375 9.375 0 0 0 12 2.625a9.375 9.375 0 0 0-.046 0zM12 3.875A8.125 8.125 0 0 1 20.125 12 8.125 8.125 0 0 1 12 20.125 8.125 8.125 0 0 1 3.875 12 8.125 8.125 0 0 1 12 3.875z"/><path d="M15.086 7.86c.918 0 1.836.558 1.914 1.64.156 2.166-1.875-.422-3.75 0 0-1.082.917-1.64 1.836-1.64zm-6.164.001c.919 0 1.836.558 1.836 1.639-1.875-.422-3.906 2.166-3.75 0 .08-1.082.997-1.64 1.914-1.64z" style="fill:gray;fill-opacity:1;stroke-width:1"/><path style="fill:gray" d="M14.188 14.5A2.188 3.125 0 0 1 12 17.625 2.188 3.125 0 0 1 9.812 14.5 2.188 3.125 0 0 1 12 11.375a2.188 3.125 0 0 1 2.188 3.125z"/></svg>
